X:152
T:La valse des cerfs-volants
C:Mario Loiselle
Z:robin.beech@mcgill.ca
M:3/4
L:1/8
K:Bmin
|: f2- fg fd | e2c2d2 | B2d2a2 | c2a2b2 | f2- fg fd | B2c2d2 | B2c2d2 | B2a2- ag | g2f2c2 ::
Bc dB fd | b2 a2- ab | bf f2- fa | ac c2- cd | Bc dB fd | b2 a2- ab | bc'd'2- d'f | fe B2- Bf | fe c2- cd :|

